X: 23692
T: Liosa's Funky
R: reel
M: 4/4
K: Dmajor
dB|:AF F2 AFEF|DF F2 ABd(e|e)f f2 e2 dB|Af f2 e2 dB|
AF F2 AFEF|DF F2 ABd(e|e)f f2 e2 dB|1 AFEF D2 dB:|2 AFEF D2 de||
|:fa a2 bfaf|df f2 e2 d(e|e)f f2 e2 dB|Af f2 e2 de|
fa a2 bfaf|df f2 e2 d(e|e)f f2 e2 dB|AFEF D2 de|
fa a2 bfaf|df f2 e2 d(e|e)f f2 e2 dB|Af f2 e2 dB|
AF F2 AFEF|DF F2 ABd(e|e)f f2 e2 dB|AFEF D2 dB:|

